!!!COM: Bach, Johann Sebastian
!!!OPR: Joh. Seb. Bachs vierstimmige Choralges‰nge
!!!XEN: Four-part Chorales
!!!OTL: 84. Herr, nun lass in Friede
!!!SCT: BWV 337
!!!SCA: Thematisch-systematisches Verzeichnis der musikalischen Werke Johann Sebastian Bach: Bach-Werke-Verzeichnis (Schmieder)
!!!YOR: Bach Gesellschaft Edition xxxix
!!!ENC: Steven Rasmussen
!!!CDT: 1685/3//-1750/7/28/
!!!OCY: Deutschland
!!!YEC: Copyright (c) 1994, 2000 Center for Computer Assisted Research in the Humanities
!!!YEM: Rights to all derivative editions reserved
!!!YEN: United States of America
**kern	**silbe	**kern	**kern	**kern
*I:[SOPRANO]	*I:[SOPRANO]	*I:[ALTO]	*I:[TENORE]	*I:[BASSO]
*clefG2	*	*clefG2	*clefGv2	*clefF4
*k[]	*	*k[]	*k[]	*k[]
*a:	*	*a:	*a:	*a:
*M4/4	*	*M4/4	*M4/4	*M4/4
=1-	=1-	=1-	=1-	=1-
4e	Herr,	4B	4G	8EL
.	.	.	.	8DJ
4e	nun	4c	8AL	4C
.	.	.	8G#J	.
4f#	lass	4d	4A	8CL
.	.	.	.	8DJ
4g#	in	4d	4B	8CL
.	.	.	.	8BBJ
=2	=2	=2	=2	=2
2a	Frie-	4e	4c	8AAL
.	.	.	.	8GGJ
.	.	4d	8BL	4FF
.	.	.	8AJ	.
2g#;	-de,	2e;	2B;	2EE;
=3	=3	=3	=3	=3
4g#	le-	4e	4B	8DL
.	.	.	.	8FJ
4g#	-bens-	4e	4B	8EL
.	.	.	.	8DJ
4a	-satt	8eL	4c	8CL
.	.	8f#J	.	8DJ
4b	und	4g#	4d	8CL
.	.	.	.	8BBJ
=4	=4	=4	=4	=4
2cc	m√º-	2a	2e	8AAL
.	.	.	.	8BB
.	.	.	.	8C
.	.	.	.	8DJ
2b;	-de,	(4a	2e;	2E;
.	.	4g#;)	.	.
=5	=5	=5	=5	=5
4cc	dei-	8gL	4e	8EL
.	.	8f#J	.	8DJ
4cc	-nen	8gL	8eL	8EL
.	.	8aJ	8dJ	8F#J
4b	Die-	4g	4d	8GL
.	.	.	.	8F#J
4b	-ner	4fn	4d	8GL
.	.	.	.	8G#J
=6	=6	=6	=6	=6
2a	fah-	4e	8d	4A
.	.	.	4c	.
.	.	4f#	.	4D#
.	.	.	8B	.
2g#;	-ren	2e;	2B;	2E;
=7	=7	=7	=7	=7
4a	zu	4c	8AL	8FL
.	.	.	8GJ	8EJ
4a	den	8fL	4F	8DL
.	.	8eJ	.	8CJ
4g	Him-	8dL	4G	8BBL
.	.	8cJ	.	8AAJ
4g	-mels-	8dL	8DL	8BBL
.	.	8eJ	8AJ	8C#J
=8	=8	=8	=8	=8
2f	-scha-	2d	4A	8DL
.	.	.	.	8C
.	.	.	4G	8BB
.	.	.	.	8GGJ
2e;	-ren,	2c;	2G;	2C;
=9	=9	=9	=9	=9
4ee	se-	4g	4c	8CL
.	.	.	.	8DJ
4ee	-lig	4g	4c	8EL
.	.	.	.	8FJ
4dd	und	4g	4c	8GL
.	.	.	.	8AJ
4dd	im	8gL	4B	8BL
.	.	8fJ	.	8GJ
=10	=10	=10	=10	=10
2cc	Stil-	2e	4B	8AAL
.	.	.	.	8BB
.	.	.	4A	8C
.	.	.	.	8DJ
2b;	-len,	2e;	(4A	2E;
.	.	.	4G#;)	.
=11	=11	=11	=11	=11
4a	doch	4c	8AL	8FFL
.	.	.	8BJ	8GGJ
4a	nach	4f	4c	8AAL
.	.	.	.	8BBJ
4g	dei-	4f	4c	8CL
.	.	.	.	8DJ
4g	-nem	4e	8cL	8EL
.	.	.	8B-J	8CJ
=12	=12	=12	=12	=12
2f	Wil-	4e	8AL	2D
.	.	.	8c	.
.	.	8dL	8B	.
.	.	8cJ	8AJ	.
2e;	-len.	2B;	2G#;	2E;
==|!	==|!	==|!	==|!	==|!
*-	*-	*-	*-	*-
!!!RWG: Key is interpreted using the Humdrum key tool.
!!!END: 1994/06/10
!!!EMD: Converted from MuseData to Humdrum Dec 19, 2000, by Andreas Kornstaedt using muse2kern.
!!!EED: Craig Stuart Sapp
!!!EEV: 2024/03/31
!!!ONB: Some non-unicode characters
